svg/u1f999.svg

<svg viewBox="0 0 128 128" xmlns="http://www.w3.org/2000/svg">
  <path d="M94.82,52.36c0,0,4.39-4.31,9.48-4.13c5.44,0.19,9.43,3.14,10.75,7.65c1.31,4.5,1.45,6.24,2.44,7.7 c0.99,1.45,2.25,2.49,2.25,3.28s-0.94,1.83-2.21,2.35s-3.47-0.09-3.47-0.09s-0.56,2.82-2.63,3.47c-2.06,0.66-3.94,0.42-3.94,0.42 l-2.63-10.18c0,0,1.84-2.79,0.38-4.74c-1.97-2.62-5.46-0.18-5.46-0.18L94.82,52.36z" fill="#957155"/>
  <path d="M68.43,93.82c0,0-0.75,5.02-1.69,6.66c-0.94,1.64-1.36,1.97-1.36,1.97s-0.05,8.26-0.05,10.56 c0,1.79,0.46,4.41-0.56,5.21c-1.27,0.99-6.29,1.03-6.99,0s1.88-3.33,1.97-4.04c0.09-0.7-0.28-7.7-0.33-9.06 c-0.05-1.36-2.36-10.3-2.36-10.3L68.43,93.82z" fill="#957155"/>
  <path d="M98.8,100.53c0.38,0.59,0.88,7.23,0.97,9.29c0.09,2.06,0.09,5.4-0.05,5.91 c-0.14,0.52-3.24,3.05-2.11,3.99c1.13,0.94,7.09,0.38,7.56-0.47c0.47-0.84,0.42-18.11,0.42-19.52c0-1.08-1.84-5.5-2.51-6.5 C102.43,92.25,98.43,99.94,98.8,100.53z" fill="#957155"/>
  <path d="M20.63,16.9c0,0-1.19-1.94-2.5-3.7c-1.51-2.02-3.17-3.8-3.1-4.47c0.08-0.76,1.3-0.49,1.3-0.49 l4.5,3.45l3.66,5.07L20.63,16.9z" fill="#DB7C60"/>
  <path d="M24.61,5.39c-0.25,1.06,1.96,3.61,3.63,7.71c0.68,1.67,1.27,6.12,1.27,6.12l2.67,1.27 c0,0-1.06-6.05-2.11-8.8S25.28,2.51,24.61,5.39z" fill="#DB7C60"/>
  <path d="M24.22,15.07c0,0-2.82-5.07-5.07-6.26c-2.25-1.2-3.94-0.74-3.77-0.32c0.31,0.74,3.1,1.9,4.43,3.94 s3.55,5.53,3.55,5.53L24.22,15.07z" fill="#FFD3B2"/>
  <path d="M24.86,4.94c-0.09-1.41,4.01,0.28,6.34,3.45s2.89,5.21,3.03,8.8s-2.6,3.45-2.6,3.24 s-0.2-4.43-2.04-9.22C28.34,8,24.93,6.06,24.86,4.94z" fill="#FFD3B2"/>
  <path d="M19.79,19.6c0,0-2.58,1.55-5.07,2.49c-2.03,0.76-6.44,2.28-6.09,4.25c0.14,0.79-0.88,1.75-0.39,3.2 c0.43,1.28,1.25,1.38,1.55,1.55c0.49,0.28,1.51,2.25,3.8,2.45c2.57,0.22,4.08-0.75,4.08-0.75L23.73,38l8.59-8.12l0.61-8.96 l-6.19-2.35L19.79,19.6z" fill="#FFD3B2"/>
  <path d="M11.69,28.59c0,0,2.04-1.23,2.89-1.65c0.84-0.42,0.77-2.15-0.84-1.51c-1.62,0.63-2.78,1.37-2.78,1.37 s-1.3-1.02-1.76-1.48S7.86,25.84,8.74,27C9.62,28.17,10,28.52,10,28.52s0,0.77-0.04,1.06s-1.9-1.23-1.87-0.25 c0.04,0.99,0.25,1.48,1.34,1.62c1.09,0.14,1.55,0.21,1.55,0.21s1.76,0.7,3.34,0.67s3.8-1.87,3.13-2.53 c-0.67-0.67-2.29,0.7-3.73,0.67c-1.44-0.04-1.9-0.25-1.9-0.25L11.69,28.59z" fill="#7B5B52"/>
  <path d="M23.17,22.85c0,0,1.16-1.2,2.43-0.49c1.27,0.7,0.99,2.82-0.32,3.13c-1.23,0.3-2.15-0.56-2.15-0.56 s-2.57,0.35-2.46-0.99C20.76,22.78,23.17,22.85,23.17,22.85z" fill="#2B2A32"/>
  <path d="M28.52,13.95c0,0-4.65-0.31-7.6,1.67s-3.94,3.28-3.43,4.18s1.88,0.89,3.61,0.75 c1.74-0.14,3.66-0.38,5.49-0.23c1.83,0.14,2.91,0.56,3.57,0.94c0.66,0.38,1.64,1.22,1.64,1.22s-1.92,2.62-3.43,4.97 c-1.5,2.35-2.39,3.89-3.19,5.73c-0.58,1.34-1.36,3.24-1.36,3.24s-2.3-2.16-2.86-2.53c-0.56-0.38-2.58-1.5-2.58-1.5l-0.99,0.61 c0,0-0.14,3.99,1.45,8.45s3.99,8.31,3.99,8.31s-0.47,7.09,3.33,13.7c2,3.49,6.38,5.87,6.38,5.87s-0.28,4.74,2.49,7.84 c2.77,3.1,5.12,3.1,5.12,3.1s0.28,2.11,1.88,5.49c1.64,3.47,3.71,4.5,3.71,4.5s-0.56,3,0.38,7.98c0.85,4.49,3.38,6.8,3.38,6.8 s0.33,12.06,0,12.81c-0.33,0.75-3.1,3.71-2.53,4.69c0.56,0.99,3.1,1.08,4.36,1.08s3.33-0.42,3.89-0.94c0.56-0.52,0.7-8.59,0.7-10.09 c0-1.5,0.33-6.99,0.33-6.99s3.47-1.55,4.69-4.18c1.22-2.63,1.08-4.74,1.08-4.74s4.18,0.52,9.29-0.89 c5.12-1.41,10.28-6.05,10.28-6.05s2.86,5.12,4.22,7.51s3.89,5.77,3.89,5.77s0.05,13.66-0.23,14.22c-0.28,0.56-3.66,4.5-2.96,5.26 c0.7,0.75,2.44,0.84,4.36,0.8c1.92-0.05,3.89-0.14,4.27-1.27c0.38-1.13,0-3.61,0.09-5.49c0.09-1.88,0.42-12.06,0.42-12.06 s5.48-3.06,7.98-9.43c2.07-5.28,2.02-10.79,2.02-10.79s1.55-5.07,1.83-6.95c0.28-1.88,0.84-5.58-1.36-11.87s-7.18-13.56-14.59-16.61 c-7.41-3.05-14.88-3.24-21.3-3.19c-6.43,0.05-17.69,1.5-19.52,0.94c-1.83-0.56-5.4-5.77-6.76-11.22c-1.36-5.44-3-11.36-5.3-14.12 s-4.41-3.66-4.41-3.66s-1.13,3.43-3.24,1.97c-1.68-1.16-1.78-2.55-1.92-3.48C28.94,15.08,28.52,13.95,28.52,13.95z" fill="#AE957F"/>
  <path d="M93.3,101.32c0.91,0.28,3.71-1.45,4.97-2.63c1.55-1.44,2.39-3.94,2.25-4.79 c-0.14-0.84-2.21,1.69-2.82,0.8c-0.61-0.89,2.26-2.98,3.28-4.65c1.4-2.28,1.79-4.19,1.18-4.56s-2.86,2.68-3.53,1.65 c-0.83-1.27,0.67-2.47,2.23-3.84c1.44-1.27,3.03-2.36,3.78-6.02s0.49-9.03-0.82-12.04c-1.31-3-5.33-9.31-12.83-13.68 c-7.51-4.36-18.96-3.85-23.56-3.71c-4.6,0.14-15.96,2.16-17.83,1.22c-1.88-0.94-5.26-3-7.41-10.09c-2.16-7.09-2.06-10.77-4.32-14.5 c-1.13-1.87-2.93-3.07-2.93-3.07s-2.51,4.53-4.15,7.06s-4.46,7.27-5.4,14.08c-0.94,6.8,0.39,12.75,0.96,15.23 c1.18,5.16,5.8,8.19,5.8,8.19s0.84-3.34,1.08-4.36c0.35-1.5,1.13-3.38,2.16-2.72c1.03,0.66-1,8.93-0.26,12.93 c0.94,5.09,5.04,5.23,5.04,5.23s0.38-2.58,1.31-3.75c0.94-1.17,1.41-1.22,1.78-0.75c0.38,0.47-0.82,4.28-0.19,8.12 c0.92,5.56,4.61,8.47,4.89,9.08s-1.09,13.48,6.04,13.59c6.15,0.09,4.88-6.66,4.88-6.66s2.49-0.89,3-4.46s-0.52-7.67-1.03-9.01 c-1.03-2.67,0.66-3.05,1.45-1.17c0.8,1.88,1.38,3.5,1.74,5.63c0.36,2.18-0.14,4.83,0.42,5.11c0.92,0.46,4.97,0.47,8.63-1.36 s6.85-5.82,6.85-5.82s-2.35-5.91-1.92-11.73s2.25-9.24,3.1-8.54c0.84,0.7-0.38,5.35,0.52,10.89c0.89,5.54,2.16,10.75,5.73,16.66 C90.95,98.79,92.22,101,93.3,101.32z" fill="#F8F9FC"/>
</svg>

<svg viewBox="0 0 128 128" xmlns="http://www.w3.org/2000/svg">
  <defs/>
  <path d="M94.82,52.36 C94.82,52.36 99.21,48.05 104.3,48.23 C109.74,48.42 113.73,51.37 115.05,55.88 C116.36,60.38 116.5,62.12 117.49,63.58 C118.48,65.03 119.74,66.07 119.74,66.86 C119.74,67.65 118.8,68.69 117.53,69.21 C116.26,69.73 114.06,69.12 114.06,69.12 C114.06,69.12 113.5,71.94 111.43,72.59 C109.37,73.25 107.49,73.01 107.49,73.01 L104.86,62.83 C104.86,62.83 106.7,60.04 105.24,58.09 C103.27,55.47 99.78,57.91 99.78,57.91 L94.82,52.36 Z" fill="#957155"/>
  <path d="M68.43,93.82 C68.43,93.82 67.68,98.84 66.74,100.48 C65.8,102.12 65.38,102.45 65.38,102.45 C65.38,102.45 65.33,110.71 65.33,113.01 C65.33,114.8 65.79,117.42 64.77,118.22 C63.5,119.21 58.48,119.25 57.78,118.22 C57.08,117.19 59.66,114.89 59.75,114.18 C59.84,113.48 59.47,106.48 59.42,105.12 C59.37,103.76 57.06,94.82 57.06,94.82 L68.43,93.82 Z" fill="#957155"/>
  <path d="M98.8,100.53 C99.18,101.12 99.68,107.76 99.77,109.82 C99.86,111.88 99.86,115.22 99.72,115.73 C99.58,116.25 96.48,118.78 97.61,119.72 C98.74,120.66 104.7,120.1 105.17,119.25 C105.64,118.41 105.59,101.14 105.59,99.73 C105.59,98.65 103.75,94.23 103.08,93.23 C102.43,92.25 98.43,99.94 98.8,100.53 Z" fill="#957155"/>
  <path d="M20.63,16.9 C20.63,16.9 19.44,14.96 18.13,13.2 C16.62,11.18 14.96,9.4 15.03,8.73 C15.11,7.97 16.33,8.24 16.33,8.24 L20.83,11.69 L24.49,16.76 L20.63,16.9 Z" fill="#DB7C60"/>
  <path d="M24.61,5.39 C24.36,6.45 26.57,9 28.24,13.1 C28.92,14.77 29.51,19.22 29.51,19.22 L32.18,20.49 C32.18,20.49 31.12,14.44 30.07,11.69 C29.02,8.94 25.28,2.51 24.61,5.39 Z" fill="#DB7C60"/>
  <path d="M24.22,15.07 C24.22,15.07 21.4,10 19.15,8.81 C16.9,7.61 15.21,8.07 15.38,8.49 C15.69,9.23 18.48,10.39 19.81,12.43 C21.14,14.47 23.36,17.96 23.36,17.96 L24.22,15.07 Z" fill="#FFD3B2"/>
  <path d="M24.86,4.94 C24.77,3.53 28.87,5.22 31.2,8.39 C33.53,11.56 34.09,13.6 34.23,17.19 C34.37,20.78 31.63,20.64 31.63,20.43 C31.63,20.22 31.43,16 29.59,11.21 C28.34,8 24.93,6.06 24.86,4.94 Z" fill="#FFD3B2"/>
  <path d="M19.79,19.6 C19.79,19.6 17.21,21.15 14.72,22.09 C12.69,22.85 8.28,24.37 8.63,26.34 C8.77,27.13 7.75,28.09 8.24,29.54 C8.67,30.82 9.49,30.92 9.79,31.09 C10.28,31.37 11.3,33.34 13.59,33.54 C16.16,33.76 17.67,32.79 17.67,32.79 L23.73,38 L32.32,29.88 L32.93,20.92 L26.74,18.57 L19.79,19.6 Z" fill="#FFD3B2"/>
  <path d="M11.69,28.59 C11.69,28.59 13.73,27.36 14.58,26.94 C15.42,26.52 15.35,24.79 13.74,25.43 C12.12,26.06 10.96,26.8 10.96,26.8 C10.96,26.8 9.66,25.78 9.2,25.32 C8.74,24.86 7.86,25.84 8.74,27 C9.62,28.17 10,28.52 10,28.52 C10,28.52 10,29.29 9.96,29.58 C9.92,29.87 8.06,28.35 8.09,29.33 C8.13,30.32 8.34,30.81 9.43,30.95 C10.52,31.09 10.98,31.16 10.98,31.16 C10.98,31.16 12.74,31.86 14.32,31.83 C15.9,31.8 18.12,29.96 17.45,29.3 C16.78,28.63 15.16,30 13.72,29.97 C12.28,29.93 11.82,29.72 11.82,29.72 L11.69,28.59 Z" fill="#7B5B52"/>
  <path d="M23.17,22.85 C23.17,22.85 24.33,21.65 25.6,22.36 C26.87,23.06 26.59,25.18 25.28,25.49 C24.05,25.79 23.13,24.93 23.13,24.93 C23.13,24.93 20.56,25.28 20.67,23.94 C20.76,22.78 23.17,22.85 23.17,22.85 Z" fill="#2B2A32"/>
  <path d="M28.52,13.95 C28.52,13.95 23.87,13.64 20.92,15.62 C17.97,17.6 16.98,18.9 17.49,19.8 C18,20.7 19.37,20.69 21.1,20.55 C22.84,20.41 24.76,20.17 26.59,20.32 C28.42,20.46 29.5,20.88 30.16,21.26 C30.82,21.64 31.8,22.48 31.8,22.48 C31.8,22.48 29.88,25.1 28.37,27.45 C26.87,29.8 25.98,31.34 25.18,33.18 C24.6,34.52 23.82,36.42 23.82,36.42 C23.82,36.42 21.52,34.26 20.96,33.89 C20.4,33.51 18.38,32.39 18.38,32.39 L17.39,33 C17.39,33 17.25,36.99 18.84,41.45 C20.43,45.91 22.83,49.76 22.83,49.76 C22.83,49.76 22.36,56.85 26.16,63.46 C28.16,66.95 32.54,69.33 32.54,69.33 C32.54,69.33 32.26,74.07 35.03,77.17 C37.8,80.27 40.15,80.27 40.15,80.27 C40.15,80.27 40.43,82.38 42.03,85.76 C43.67,89.23 45.74,90.26 45.74,90.26 C45.74,90.26 45.18,93.26 46.12,98.24 C46.97,102.73 49.5,105.04 49.5,105.04 C49.5,105.04 49.83,117.1 49.5,117.85 C49.17,118.6 46.4,121.56 46.97,122.54 C47.53,123.53 50.07,123.62 51.33,123.62 C52.59,123.62 54.66,123.2 55.22,122.68 C55.78,122.16 55.92,114.09 55.92,112.59 C55.92,111.09 56.25,105.6 56.25,105.6 C56.25,105.6 59.72,104.05 60.94,101.42 C62.16,98.79 62.02,96.68 62.02,96.68 C62.02,96.68 66.2,97.2 71.31,95.79 C76.43,94.38 81.59,89.74 81.59,89.74 C81.59,89.74 84.45,94.86 85.81,97.25 C87.17,99.64 89.7,103.02 89.7,103.02 C89.7,103.02 89.75,116.68 89.47,117.24 C89.19,117.8 85.81,121.74 86.51,122.5 C87.21,123.25 88.95,123.34 90.87,123.3 C92.79,123.25 94.76,123.16 95.14,122.03 C95.52,120.9 95.14,118.42 95.23,116.54 C95.32,114.66 95.65,104.48 95.65,104.48 C95.65,104.48 101.13,101.42 103.63,95.05 C105.7,89.77 105.65,84.26 105.65,84.26 C105.65,84.26 107.2,79.19 107.48,77.31 C107.76,75.43 108.32,71.73 106.12,65.44 C103.92,59.15 98.94,51.88 91.53,48.83 C84.12,45.78 76.65,45.59 70.23,45.64 C63.8,45.69 52.54,47.14 50.71,46.58 C48.88,46.02 45.31,40.81 43.95,35.36 C42.59,29.92 40.95,24 38.65,21.24 C36.35,18.48 34.24,17.58 34.24,17.58 C34.24,17.58 33.11,21.01 31,19.55 C29.32,18.39 29.22,17 29.08,16.07 C28.94,15.08 28.52,13.95 28.52,13.95 Z" fill="#AE957F"/>
  <path d="M93.3,101.32 C94.21,101.6 97.01,99.87 98.27,98.69 C99.82,97.25 100.66,94.75 100.52,93.9 C100.38,93.06 98.31,95.59 97.7,94.7 C97.09,93.81 99.96,91.72 100.98,90.05 C102.38,87.77 102.77,85.86 102.16,85.49 C101.55,85.12 99.3,88.17 98.63,87.14 C97.8,85.87 99.3,84.67 100.86,83.3 C102.3,82.03 103.89,80.94 104.64,77.28 C105.39,73.62 105.13,68.25 103.82,65.24 C102.51,62.24 98.49,55.93 90.99,51.56 C83.48,47.2 72.03,47.71 67.43,47.85 C62.83,47.99 51.47,50.01 49.6,49.07 C47.72,48.13 44.34,46.07 42.19,38.98 C40.03,31.89 40.13,28.21 37.87,24.48 C36.74,22.61 34.94,21.41 34.94,21.41 C34.94,21.41 32.43,25.94 30.79,28.47 C29.15,31 26.33,35.74 25.39,42.55 C24.45,49.35 25.78,55.3 26.35,57.78 C27.53,62.94 32.15,65.97 32.15,65.97 C32.15,65.97 32.99,62.63 33.23,61.61 C33.58,60.11 34.36,58.23 35.39,58.89 C36.42,59.55 34.39,67.82 35.13,71.82 C36.07,76.91 40.17,77.05 40.17,77.05 C40.17,77.05 40.55,74.47 41.48,73.3 C42.42,72.13 42.89,72.08 43.26,72.55 C43.64,73.02 42.44,76.83 43.07,80.67 C43.99,86.23 47.68,89.14 47.96,89.75 C48.24,90.36 46.87,103.23 54,103.34 C60.15,103.43 58.88,96.68 58.88,96.68 C58.88,96.68 61.37,95.79 61.88,92.22 C62.39,88.65 61.36,84.55 60.85,83.21 C59.82,80.54 61.51,80.16 62.3,82.04 C63.1,83.92 63.68,85.54 64.04,87.67 C64.4,89.85 63.9,92.5 64.46,92.78 C65.38,93.24 69.43,93.25 73.09,91.42 C76.75,89.59 79.94,85.6 79.94,85.6 C79.94,85.6 77.59,79.69 78.02,73.87 C78.45,68.05 80.27,64.63 81.12,65.33 C81.96,66.03 80.74,70.68 81.64,76.22 C82.53,81.76 83.8,86.97 87.37,92.88 C90.95,98.79 92.22,101 93.3,101.32 Z" fill="#F8F9FC"/>
</svg>
